X: 1
T: Return to Helsinki
%T: Return from Helsinki
C: Ian Stephenson
R: march
S: Fiddle Hell Online 2022-4-2 handout for Swedish Jam led by Bronwyn Bird and Justin Nawn
Z: 2022 John Chambers <jc:trillian.mit.edu>
M: 4/4
L: 1/8
K: D
|:\
"D"A4 F2ED | "A"C3D E3A, | "G"B,CDF E2DC | "Em"B,2"A"A,3 FGA || "G"ABAG "A"E2A2 |
"Bm"F3D "C"GFED | "G"B,2DF "A"E2DC | "D"D4 [1 D2A,2 :|[2 DEFA |: "G"B2BA B2GA |
"Em"Bcd2 Bcde | "Bm"efec d2cB | AFE2 "Bm/A"DEFA || "G"B2BA B2GA |
"Em"Bcd2 Bcde | "Bm"efec d2cB |[1 "Bm"AFE2 "Bm/A"D4 :|[2 "Bm"AF "A/C#"E4 |]
